X: 1151
T: İndim Yârin Bahçesine
C: (Anonim)
O: Turkey
F: http://compmusic.upf.edu/node/140
N: mahur--turku--kapali_curcuna--indim_yarin--
N: makam= mahur
N: form= turku
N: usul= kapali_curcuna = 10/8
M: 10/8
L: 1/16
K: C ^9/8f   
Q: 1/4=180
%%MIDI tuningsystem comma53
c6e4c2 e2d6  | B6d4B2 d2c4B2  | A6c4B2 A2d4c2  | \
w:  ARANAĞME  |   |   | 
B4 A2A2 G2G2 A2B2 c2d2  | 
w:   | 
c6e4c2 e2d6  | B6d4B2 d2c4B2  | A6c4B2 A2d4c2  | \
w:  ARANAĞME  |   |   | 
B4 A2A2 G2G8z2  | 
w:   | 
d6g4g2 f2g6  | f2e2 f2g4f2 e2d6  | g6g4g4g2 f2e2  | \
w:  İn dim  yâ *  rin   |  bah *  *  çe si *  ne    |  Gül  di bin de   | 
f2g2 a2a2 g2g2 f2g6  | 
w:  gül_ *  *  i  *  ter    | 
d6g4g2 f2g6  | f2e2 f2g4f2 e2d6  | g6g4g4g2 f2e2  | \
w:  İn dim  yâ *  rin   |  bah *  *  çe si *  ne    |  Gül  di bin de   | 
f2g2 a2a2 g2g2 f2g6  | 
w:  gül_ *  *  i  *  ter    | 
c6e4c2 e2d6  | B6d4B2 d2c4B2  | A6c4B2 A2d4c2  | \
w:  Ya vaş  yü *  rü   |  sev di ce *  ğim    |  Ca hi lim  *  ak  | 
B4 A2A2 G2G2 A2B2 c2d2  | 
w:  lım  *  gi *  der    | 
c6e4c2 e2d6  | B6d4B2 d2c4B2  | A6c4B2 A2d4c2  | \
w:  Ya vaş  yü *  rü   |  sev di ce *  ğim    |  Ca hi lim  *  ak  | 
B4 A2A2 G2G4z6  | 
w:  lım  *  gi *  der    | 
c6e4c2 e2d6  | B6d4B2 d2c4B2  | A6c4B2 A2d4c2  | \
w:  ARANAĞME  |   |   | 
B4 A2A2 G2G2 A2B2 c2d2  | 
w:   | 
c6e4c2 e2d6  | B6d4B2 d2c4B2  | A6c4B2 A2d4c2  | \
w:  ARANAĞME  |   |   | 
B4 A2A2 G2G8z2  | 
w:   | 
d6g4g2 f2g6  | f2e2 f2g4f2 e2d6  | g6g4g4g2 f2e2  | \
w:  İn dim  yâ *  rin   |  bah *  *  çe si *  ne    |  Gül  di bin de   | 
f2g2 a2a2 g2g2 f2g6  | 
w:  gül_ *  *  i  *  ter    | 
d6g4g2 f2g6  | f2e2 f2g4f2 e2d6  | g6g4g4g2 f2e2  | \
w:  İn dim  yâ *  rin   |  bah *  *  çe si *  ne    |  Gül  di bin de   | 
f2g2 a2a2 g2g2 f2g6  | 
w:  gül_ *  *  i  *  ter    | 
c6e4c2 e2d6  | B6d4B2 d2c4B2  | A6c4B2 A2d4c2  | \
w:  Ya vaş  yü *  rü   |  sev di ce *  ğim    |  Ca hi lim  *  ak  | 
B4 A2A2 G2G2 A2B2 c2d2  | 
w:  lım  *  gi *  der    | 
c6e4c2 e2d6  | B6d4B2 d2c4B2  | A6c4B2 A2d4c2  | \
w:  Ya vaş  yü *  rü   |  sev di ce *  ğim    |  Ca hi lim  *  ak  | 
B4 A2A2 G2G4z6  | 
w:  lım  *  gi *  der    | 
|


